X:1
T:Cicely Sweet.
B:Songs of the West by S. Baring-Gould.
S:
M:4/4
L:1/4
K:F
F c c3/2 B1/2|B (A1/2G1/2) A2|F c c B|B (A1/2G1/2) A2|
w:Cice-ly sweet, the morn is *fair, Wilt thou drive me to desp-*air?
F F1/2 G1/2 A3/4 A1/4 A|(G3/4F1/4) G1/2 A1/2 B3/4 B1/4 B|
w:Oft have I sued in vain And *now I'm come a-gain,
A G3/4 F1/4 F z1/2 c1/2|d f c3/2 z1/2| c c3/4 d1/4 c E| F3 z|
w:Wilt thou be mine, or Yes or No? Wilt thou be mine, or No?
F c c3/2 B1/2|B (A1/2G1/2) A2|F c c B|B (A1/2G1/2) A2|
w:Pri-thee, Si-mon quit thy *suit, All thy pains will yield no *fruit,
F F1/2 G1/2 A1/2 A1/2 A|(G3/4F1/4) G1/2 A1/2 B3/4 B1/4 B|A  G3/4 F1/4 F c|
w:Go boo-by, get a sack, To *stop thy cease-less clack, Go for a boo-by,
d f c2|c c3/4 d1/4 c E|F3 z|
w:Go go, go! Go for a boo-by go!